assets/icons/scanner.svg

<?xml version="1.0" encoding="UTF-8" standalone="no"?>
<svg
   viewBox="0 0 24 24"
   height="24"
   id="svg7384"
   version="1.1"
   width="24"
   sodipodi:docname="scanner.svg"
   inkscape:version="1.2 (1:1.2.1+202207142221+cd75a1ee6d)"
   xmlns:inkscape="http://www.inkscape.org/namespaces/inkscape"
   xmlns:sodipodi="http://sodipodi.sourceforge.net/DTD/sodipodi-0.dtd"
   xmlns="http://www.w3.org/2000/svg"
   xmlns:svg="http://www.w3.org/2000/svg"
   xmlns:rdf="http://www.w3.org/1999/02/22-rdf-syntax-ns#"
   xmlns:cc="http://creativecommons.org/ns#"
   xmlns:dc="http://purl.org/dc/elements/1.1/">
  <sodipodi:namedview
     id="namedview24"
     pagecolor="#ffffff"
     bordercolor="#666666"
     borderopacity="1.0"
     inkscape:pageshadow="2"
     inkscape:pageopacity="0.0"
     inkscape:pagecheckerboard="0"
     showgrid="true"
     inkscape:zoom="16"
     inkscape:cx="18.53125"
     inkscape:cy="1.28125"
     inkscape:window-width="1920"
     inkscape:window-height="1016"
     inkscape:window-x="0"
     inkscape:window-y="0"
     inkscape:window-maximized="1"
     inkscape:current-layer="svg7384"
     width="24px"
     inkscape:showpageshadow="2"
     inkscape:deskcolor="#d1d1d1">
    <inkscape:grid
       type="xygrid"
       id="grid14" />
    <inkscape:grid
       type="xygrid"
       id="grid831"
       dotted="true"
       spacingx="0.5"
       spacingy="0.5"
       empspacing="10" />
  </sodipodi:namedview>
  <metadata
     id="metadata20854">
    <rdf:RDF>
      <cc:Work
         rdf:about="">
        <dc:format>image/svg+xml</dc:format>
        <dc:type
           rdf:resource="http://purl.org/dc/dcmitype/StillImage" />
      </cc:Work>
    </rdf:RDF>
  </metadata>
  <defs
     id="defs7386">
    <linearGradient
       id="linearGradient5606"
       inkscape:swatch="solid">
      <stop
         id="stop5608"
         offset="0"
         style="stop-color:#000000;stop-opacity:1;" />
    </linearGradient>
    <linearGradient
       id="linearGradient4526"
       inkscape:swatch="solid">
      <stop
         id="stop4528"
         offset="0"
         style="stop-color:#ffffff;stop-opacity:1;" />
    </linearGradient>
    <linearGradient
       id="linearGradient3600-4"
       inkscape:swatch="gradient">
      <stop
         id="stop3602-7"
         offset="0"
         style="stop-color:#f4f4f4;stop-opacity:1" />
      <stop
         id="stop3604-6"
         offset="1"
         style="stop-color:#dbdbdb;stop-opacity:1" />
    </linearGradient>
  </defs>
  <path
     id="path866"
     style="color:#000000;fill:#808080;fill-opacity:1"
     d="M 6.7871094 2 C 6.1101664 2.00559 5.536505 2.0481534 5.0273438 2.3027344 C 4.6879027 2.4724548 4.3973377 2.7651696 4.2304688 3.140625 C 4.0635994 3.5160804 4 3.9583359 4 4.5 L 4 19.5 C 4 20.041662 4.0635992 20.483918 4.2304688 20.859375 C 4.3973377 21.234832 4.6879027 21.527544 5.0273438 21.697266 C 5.7062257 22.036704 6.500005 22 7.5 22 L 16.5 22 C 17.499995 22 18.293775 22.036708 18.972656 21.697266 C 19.312098 21.527544 19.602662 21.234832 19.769531 20.859375 C 19.9364 20.483918 20 20.041662 20 19.5 L 20 4.5 C 20 3.9583359 19.9364 3.5160804 19.769531 3.140625 C 19.602662 2.7651696 19.312098 2.4724548 18.972656 2.3027344 C 18.463496 2.0481536 17.889833 2.00559 17.212891 2 C 16.987242 1.99814 16.75 2 16.5 2 L 7.5 2 C 7.2500011 2 7.0127568 1.99814 6.7871094 2 z M 7.5 3 L 16.5 3 C 17.499995 3 18.20623 3.0367094 18.527344 3.1972656 C 18.687901 3.2775434 18.772339 3.3598334 18.855469 3.546875 C 18.938599 3.7339166 19 4.0416691 19 4.5 L 19 11 L 5 11 L 5 4.5 C 5 4.0416691 5.0614012 3.7339166 5.1445312 3.546875 C 5.2276612 3.3598334 5.3120999 3.2775438 5.4726562 3.1972656 C 5.7937693 3.0367093 6.500005 3 7.5 3 z M 9.4003906 4 L 7.2402344 9.4003906 L 7 9.4003906 L 7 10 L 8.1992188 10 L 8.8007812 10 L 8.8007812 9.4003906 L 8.4394531 9.4003906 L 8.9199219 8.1992188 L 11.080078 8.1992188 L 11.560547 9.4003906 L 11.199219 9.4003906 L 11.199219 10 L 11.800781 10 L 13 10 L 13 9.4003906 L 12.759766 9.4003906 L 10.599609 4 L 9.4003906 4 z M 10 5.4980469 L 10.839844 7.5996094 L 9.1601562 7.5996094 L 10 5.4980469 z M 5 12 L 19 12 L 19 19.5 C 19 19.958333 18.9386 20.266083 18.855469 20.453125 C 18.772339 20.640167 18.687901 20.722454 18.527344 20.802734 C 18.20623 20.96329 17.499995 21 16.5 21 L 7.5 21 C 6.500005 21 5.7937694 20.96329 5.4726562 20.802734 C 5.3120999 20.722454 5.2276612 20.640167 5.1445312 20.453125 C 5.0614014 20.266083 5 19.958333 5 19.5 L 5 12 z M 7 14.25 L 7 14.75 L 17 14.75 L 17 14.25 L 7 14.25 z M 7 16.25 L 7 16.75 L 17 16.75 L 17 16.25 L 7 16.25 z M 7 18.25 L 7 18.75 L 17 18.75 L 17 18.25 L 7 18.25 z " />
</svg>

<svg height="24" width="24" xmlns="http://www.w3.org/2000/svg"><path style="color:#000;fill:gray;fill-opacity:1" d="M6.787 2c-.677.006-1.25.048-1.76.303-.34.17-.63.462-.797.838C4.064 3.516 4 3.958 4 4.5v15c0 .542.064.984.23 1.36.167.375.458.668.797.837.68.34 1.473.303 2.473.303h9c1 0 1.794.037 2.473-.303.34-.17.63-.462.797-.838.166-.375.23-.817.23-1.359v-15c0-.542-.064-.984-.23-1.36a1.72 1.72 0 0 0-.797-.837c-.51-.255-1.083-.297-1.76-.303-.226-.002-.463 0-.713 0h-9c-.25 0-.487-.002-.713 0zM7.5 3h9c1 0 1.706.037 2.027.197.16.08.245.163.328.35.084.187.145.495.145.953V11H5V4.5c0-.458.061-.766.145-.953a.615.615 0 0 1 .328-.35C5.793 3.037 6.5 3 7.5 3zm1.9 1L7.24 9.4H7v.6h1.8v-.6h-.36l.48-1.2h2.16l.48 1.2h-.36v.6H13v-.6h-.24L10.6 4H9.4zm.6 1.498.84 2.102H9.16L10 5.498zM5 12h14v7.5c0 .458-.061.766-.145.953a.615.615 0 0 1-.328.35c-.32.16-1.027.197-2.027.197h-9c-1 0-1.706-.037-2.027-.197a.615.615 0 0 1-.328-.35C5.06 20.266 5 19.958 5 19.5V12zm2 2.25v.5h10v-.5H7zm0 2v.5h10v-.5H7zm0 2v.5h10v-.5H7z"/></svg>
